hackathon/svg-icons/src/components/icons/source/ar-robot.svg

<svg fill="none" height="256" viewBox="0 0 256 256" width="256" xmlns="http://www.w3.org/2000/svg"><g fill="#000"><path d="m137.16 116.854.821-.824c1.292-1.303 2.139-2.983 2.415-4.797.276-1.816-.032-3.671-.879-5.3-.659-1.304-.765-2.819-.297-4.203l.681-2.0163c.674-2.0407.709-4.2381.099-6.2986-.608-2.0621-1.831-3.8868-3.505-5.2356l-9.521-7.6168v.0016c-1.723-1.3823-2.906-3.3257-3.341-5.4909l-.425-2.129c-1.836-9.1284-6.452-17.4645-13.218-23.8621-6.764-6.3991-15.3447-10.5442-24.5615-11.8655-5.7497-.8287-11.6054-.5276-17.2395.885l-5.7389 1.4371c-.1825.0714-.3604.1581-.5277.2585-.1627.0456-.3208.1034-.4744.1703l-3.9505 2.5349c-9.2335 5.8121-15.9729 14.8536-18.9034 25.3628-2.9306 10.5092-1.8415 21.7331 3.0535 31.4836-2.3707 4.037-2.8573 8.911-1.3276 13.336l-.3026-.201h-.0015c-6.1071 9.059-8.569 20.088-6.8915 30.883 1.6757 10.795 7.366 20.561 15.9319 27.34l3.9964 3.198c-.2265 1.105-.3543 2.228-.3816 3.356-17.4997 9.471-29.4734 26.677-32.2743 46.376l-1.3625 9.472v.001c-.1399.98.1521 1.971.7999 2.718.6493.747 1.5906 1.174 2.579 1.172h105.5938c1.183.006 2.286-.602 2.911-1.607s.684-2.263.155-3.321l-6.813-13.587v-.002c-2.565-5.097-6.701-9.233-11.798-11.798-3.623-1.805-6.454-4.879-7.958-8.635-2.72-6.794-8.1262-12.164-14.9403-14.838.2387-.648.4394-1.308.6037-1.979l3.7088-18.489c.0016-.029.0016-.06 0-.088 0-.034.0274-.061.0335-.096l2.725-19.188h.0015c2.909 1.084 5.9888 1.647 9.0938 1.659h23.579c1.913-.001 3.798-.447 5.51-1.301 2.052-1.018 3.778-2.59 4.982-4.538 1.203-1.948 1.839-4.194 1.831-6.484v-8.301c.006-1.545-.406-3.064-1.194-4.393-.787-1.331-1.92-2.421-3.278-3.159zm-49.5293 41.459-23.6843-2.633.733-3.659 23.4787 2.609zm-30.728-3.283c-4.3764-3.762-7.275-8.956-8.175-14.657-.9003-5.701.2554-11.536 3.2602-16.463.6402.177 1.2896.317 1.945.42l5.8346 17.509-2.6672 13.35zm-.4288-57.6881c2.7097 0 5.3102 1.0766 7.2259 2.9931 1.9157 1.916 2.9926 4.516 2.9926 7.225 0 2.71-1.0766 5.311-2.9926 7.226-1.916 1.916-4.5165 2.993-7.2259 2.993-2.7095 0-5.3103-1.077-7.226-2.993s-2.9926-4.516-2.9926-7.226c0-2.709 1.0766-5.31 2.9926-7.225 1.916-1.9161 4.5165-2.9931 7.226-2.9931zm3.2876 77.5461 2.7797-12.508 3.2664.365-4.2911 21.46c-.0441-.066-.1019-.116-.143-.184l-.0015-.002c-1.7335-2.706-2.3129-5.994-1.6103-9.131zm12.8418-11.391 3.2025.357-5.1398 25.706-.0015.002c-.5718-.032-1.1405-.099-1.7031-.205-.4912-.128-.9732-.286-1.4446-.473zm9.9969 1.113 3.87.429-2.9743 14.855c-.6281 3.204-2.5319 6.014-5.2737 7.787-.0852.055-.1764.082-.2616.137zm-16.5887-19.296.2524-1.263 5.1398-2.201 18.1992 2.599-.4912 3.431zm17.4373-8.628 2.17-.931c.4364.511.9261.965 1.3959 1.438zm-18.1108.341-4.3643-13.115c4.7322-1.304 8.6706-4.59 10.8012-9.012l6.6315 1.659c-.2889 2.86.1505 5.748 1.2773 8.392l1.7366 4.05c.1399.34.3406.62.4866.936zm8.084-28.745c0-.25.0745-.481.0745-.729l-.0015-.001c-.0122-3.715-1.2531-7.322-3.528-10.2598l8.7847-5.269 2.1015 5.4029c1.5785 4.0909 1.396 8.6509-.5048 12.6029zm-12.2626-60.0555.4395-.2828 14.5099 37.7242-11.6012 6.9632-.0015-.0015c-2.7782-1.5526-5.9444-2.2734-9.121-2.0772-3.1766.1946-6.2286 1.3001-8.7955 3.1812-3.315-8.0867-3.6694-17.0815-1.0036-25.4041 2.6642-8.3226 8.1797-15.4376 15.5746-20.0938zm-17.1636 70.8505-.0016-.002c.5946.631 1.2348 1.217 1.9176 1.752-3.6922 6.291-5.0592 13.678-3.861 20.874 1.1983 7.197 4.886 13.744 10.4181 18.499l3.0079 2.574-.8212 3.689-1.3457-1.076c-6.7853-5.368-11.4443-12.97-13.149-21.452-1.7061-8.48-.3467-17.293 3.8367-24.866zm-.663 111.11c.999-3.923 3.6982-7.194 7.3583-8.922 3.6617-1.726 7.9044-1.726 11.5661 0 3.6602 1.728 6.3594 4.999 7.3583 8.922zm54.8427-29.607c2.1245 5.307 6.1255 9.647 11.2405 12.197 3.784 1.901 6.854 4.971 8.754 8.754l4.327 8.656h-45.8895c-1.0751-6.399-5.1293-11.906-10.9215-14.833-5.7906-2.927-12.6277-2.927-18.4179 0-5.7922 2.927-9.8463 8.434-10.9215 14.833h-10.0043l.7969-5.587c2.3555-16.779 12.2395-31.568 26.8409-40.163 2.2916 5.873 7.3614 10.216 13.5157 11.581 1.3655.304 2.7584.458 4.156.459 5.7618.025 11.2041-2.641 14.7154-7.208 5.3909 1.884 9.7018 6.009 11.8231 11.31zm36.6445-67.872c-.001 3.042-2.468 5.509-5.51 5.51h-23.58c-3.844.005-7.6043-1.122-10.8144-3.237-3.2101-2.117-5.7268-5.129-7.2384-8.665l-1.7335-4.046c-1.1937-2.779-1.0979-5.943.2585-8.645l.1536-.314c2.8558-5.722 3.1645-12.384.8516-18.3463l-19.3441-49.7392 1.989-.4973c10.1277-2.5106 20.8405-.771 29.6528 4.8128 8.8119 5.5837 14.9589 14.5282 17.0129 24.7563l.426 2.1258c.748 3.7378 2.79 7.0925 5.768 9.4737l9.52 7.6199v-.0015c1.206.9717 1.684 2.5897 1.199 4.0618l-.682 2.0134v-.0015c-1.05 3.1581-.781 6.6061.747 9.5621.345.693.208 1.531-.341 2.077l-2.214 2.214c-1.224 1.225-1.786 2.962-1.51 4.671.277 1.709 1.358 3.181 2.906 3.957l1.478.739c.612.304.998.929.995 1.612z"/><path d="m110.976 83.7182c1.881 0 3.406-1.5252 3.406-3.4062 0-1.8811-1.525-3.4063-3.406-3.4063-2.486-.2326-4.962.5353-6.879 2.1335-1.918 1.5982-3.121 3.896-3.34 6.3824.219 2.4862 1.422 4.7839 3.34 6.3823 1.917 1.5984 4.393 2.3661 6.879 2.1335 1.881 0 3.406-1.5252 3.406-3.4063 0-1.881-1.525-3.4062-3.406-3.4062-2.112 0-3.406-1.104-3.406-1.7031 0-.5992 1.294-1.7032 3.406-1.7032z"/><path d="m220.315 173.928-.473.47c-2.022 2.019-4.297 3.769-6.768 5.205l23.602-50.156-6.165-2.901-26.678 56.707c-1.264.303-2.543.531-3.832.681l-6.329.701.711-.947v.001c1.693-2.256 2.199-5.19 1.358-7.883-.839-2.693-2.922-4.817-5.599-5.711-2.159-.712-4.513-.548-6.554.456l-18.531-33.972-5.98 3.264 19.218 35.23-4.197 4.197.001.002c-.6-.093-1.206-.154-1.812-.181-4.363.01-8.556 1.698-11.709 4.712-3.154 3.014-5.029 7.126-5.237 11.484l-13.507 37.128c-.383 1.046-.232 2.214.406 3.127.639.914 1.682 1.456 2.797 1.455h23.844c1.52-.002 2.857-1.01 3.274-2.473l6.472-22.621c2.731-1.119 5.126-2.927 6.948-5.249l8.996.871c1.409.137 2.816.204 4.216.204v.002c9.255.112 18.254-3.032 25.426-8.884 4.761-4.032 8.521-9.113 10.988-14.844 1.125-2.628.959-5.63-.45-8.118-1.41-2.486-3.901-4.173-6.732-4.556-2.833-.384-5.683.577-7.704 2.598zm-34.338 3.12c.524-.526 1.302-.709 2.006-.47.601.198 1.068.671 1.258 1.274.188.603.076 1.26-.304 1.764l-3.959 5.266c-1.072-1.222-2.316-2.285-3.692-3.154zm-19.665 53.138h-16.411l8.724-23.995h-.001c2.98 4.038 7.596 6.548 12.603 6.854zm5.975-23.844c-2.71 0-5.31-1.077-7.226-2.993s-2.993-4.516-2.993-7.226c0-2.709 1.077-5.31 2.993-7.226 1.916-1.915 4.517-2.992 7.226-2.992s5.31 1.076 7.226 2.992 2.993 4.517 2.993 7.226c0 2.71-1.077 5.311-2.993 7.226-1.916 1.916-4.517 2.993-7.226 2.993zm56.649-25.02c-2.711 6.487-7.483 11.904-13.576 15.412s-13.172 4.915-20.146 4.004l-6.425-.623h.002c.707-2.648.699-5.437-.025-8.08l11.983-1.332c9.042-1.014 17.469-5.067 23.909-11.493l.473-.47c.792-.795 2.038-.915 2.967-.285.931.629 1.28 1.83.835 2.861z"/><path d="m156.71 76.2907 34.062 23.8433c.041.031.089.038.13.066.041.027.091.079.143.109l.001-.001c.144.071.295.132.449.184.095.038.187.085.285.115h.002c.791.247 1.647.172 2.384-.208.041-.02.092 0 .133-.033.041-.034.054-.044.085-.061.03-.017.065-.02.096-.041l34.062-20.4378c1.025-.6159 1.652-1.7245 1.652-2.9197v-37.4689c-.014-1.5617-1.103-2.9075-2.626-3.2496l-33.307-16.823c-.965-.4867-2.102-.4867-3.066 0l-33.313 16.823c-1.524.3421-2.612 1.6879-2.626 3.2496v34.0627c0 1.1116.543 2.1532 1.454 2.7904zm5.359-31.4914 13.625 6.9009v8.175c0 .9033.359 1.7701.997 2.4087l12.628 12.6261v15.8939l-27.25-19.0751zm31.477 24.7014-11.04-11.0355v-3.3409l8.683 4.3873v-.0015c.964.4866 2.102.4866 3.066 0l12.095-6.1071v10.979zm2.585 21.8273v-15.5228l14.892-5.9549v.0015c1.294-.5185 2.141-1.7716 2.139-3.1645v-16.7241l10.219-5.1643v30.1787zm-3.406-65.1082 26.163 13.2159-26.163 13.2159-26.163-13.2159z"/><path d="m165.838 105.678 6.094-3.047 30.656 61.312-6.093 3.048z"/><path d="m196.736 136.28 30.655-44.2817 5.601 3.8776-30.655 44.2811z"/></g></svg>

<svg xmlns="http://www.w3.org/2000/svg" width="256" height="256" fill="none" viewBox="0 0 256 256"><path fill="#000" d="M137.16 116.854L137.981 116.03C139.273 114.727 140.12 113.047 140.396 111.233C140.672 109.417 140.364 107.562 139.517 105.933C138.858 104.629 138.752 103.114 139.22 101.73L139.901 99.7137C140.575 97.673 140.61 95.4756 140 93.4151C139.392 91.353 138.169 89.5283 136.495 88.1795L126.974 80.5627V80.5643C125.251 79.182 124.068 77.2386 123.633 75.0734L123.208 72.9444C121.372 63.816 116.756 55.4799 109.99 49.0823C103.226 42.6832 94.6453 38.5381 85.4285 37.2168C79.6788 36.3881 73.8231 36.6892 68.189 38.1018L62.4501 39.5389C62.2676 39.6103 62.0897 39.697 61.9224 39.7974C61.7597 39.843 61.6016 39.9008 61.448 39.9677L57.4975 42.5026C48.264 48.3147 41.5246 57.3562 38.5941 67.8654C35.6635 78.3746 36.7526 89.5985 41.6476 99.349C39.2769 103.386 38.7903 108.26 40.32 112.685L40.0174 112.484H40.0159C33.9088 121.543 31.4469 132.572 33.1244 143.367C34.8001 154.162 40.4904 163.928 49.0563 170.707L53.0527 173.905C52.8262 175.01 52.6984 176.133 52.6711 177.261C35.1714 186.732 23.1977 203.938 20.3968 223.637L19.0343 233.109V233.11C18.8944 234.09 19.1864 235.081 19.8342 235.828C20.4835 236.575 21.4248 237.002 22.4132 237H128.007C129.19 237.006 130.293 236.398 130.918 235.393C131.543 234.388 131.602 233.13 131.073 232.072L124.26 218.485V218.483C121.695 213.386 117.559 209.25 112.462 206.685C108.839 204.88 106.008 201.806 104.504 198.05C101.784 191.256 96.3778 185.886 89.5637 183.212C89.8024 182.564 90.0031 181.904 90.1674 181.233L93.8762 162.744C93.8778 162.715 93.8778 162.684 93.8762 162.656C93.8762 162.622 93.9036 162.595 93.9097 162.56L96.6347 143.372H96.6362C99.5452 144.456 102.625 145.019 105.73 145.031H129.309C131.222 145.03 133.107 144.584 134.819 143.73C136.871 142.712 138.597 141.14 139.801 139.192C141.004 137.244 141.64 134.998 141.632 132.708V124.407C141.638 122.862 141.226 121.343 140.438 120.014C139.651 118.683 138.518 117.593 137.16 116.855L137.16 116.854ZM87.6307 158.313L63.9464 155.68L64.6794 152.021L88.1581 154.63L87.6307 158.313ZM56.9027 155.03C52.5263 151.268 49.6277 146.074 48.7277 140.373C47.8274 134.672 48.9831 128.837 51.9879 123.91C52.6281 124.087 53.2775 124.227 53.9329 124.33L59.7675 141.839L57.1003 155.189L56.9027 155.03ZM56.4739 97.3419C59.1836 97.3419 61.7841 98.4185 63.6998 100.335C65.6155 102.251 66.6924 104.851 66.6924 107.56C66.6924 110.27 65.6158 112.871 63.6998 114.786C61.7838 116.702 59.1833 117.779 56.4739 117.779C53.7644 117.779 51.1636 116.702 49.2479 114.786C47.3322 112.87 46.2553 110.27 46.2553 107.56C46.2553 104.851 47.3319 102.25 49.2479 100.335C51.1639 98.4189 53.7644 97.3419 56.4739 97.3419ZM59.7615 174.888L62.5412 162.38L65.8076 162.745L61.5165 184.205C61.4724 184.139 61.4146 184.089 61.3735 184.021L61.372 184.019C59.6385 181.313 59.0591 178.025 59.7617 174.888L59.7615 174.888ZM72.6033 163.497L75.8058 163.854L70.666 189.56L70.6645 189.562C70.0927 189.53 69.524 189.463 68.9614 189.357C68.4702 189.229 67.9882 189.071 67.5168 188.884L72.6033 163.497ZM82.6002 164.61L86.4702 165.039L83.4959 179.894C82.8678 183.098 80.964 185.908 78.2222 187.681C78.137 187.736 78.0458 187.763 77.9606 187.818L82.6002 164.61ZM66.0115 145.314L66.2639 144.051L71.4037 141.85L89.6029 144.449L89.1117 147.88L66.0115 145.314ZM83.4488 136.686L85.6188 135.755C86.0552 136.266 86.5449 136.72 87.0147 137.193L83.4488 136.686ZM65.338 137.027L60.9737 123.912C65.7059 122.608 69.6443 119.322 71.7749 114.9L78.4064 116.559C78.1175 119.419 78.5569 122.307 79.6837 124.951L81.4203 129.001C81.5602 129.341 81.7609 129.621 81.9069 129.937L65.338 137.027ZM73.422 108.282C73.422 108.032 73.4965 107.801 73.4965 107.553L73.495 107.552C73.4828 103.837 72.2419 100.23 69.967 97.2922L78.7517 92.0232L80.8532 97.4261C82.4317 101.517 82.2492 106.077 80.3484 110.029L73.422 108.282ZM61.1594 48.2265L61.5989 47.9437L76.1088 85.6679L64.5076 92.6311L64.5061 92.6296C61.7279 91.077 58.5617 90.3562 55.3851 90.5524C52.2085 90.747 49.1565 91.8525 46.5896 93.7336C43.2746 85.6469 42.9202 76.6521 45.586 68.3295C48.2502 60.0069 53.7657 52.8919 61.1606 48.2357L61.1594 48.2265ZM43.9958 119.077L43.9942 119.075C44.5888 119.706 45.229 120.292 45.9118 120.827C42.2196 127.118 40.8526 134.505 42.0508 141.701C43.2491 148.898 46.9368 155.445 52.4689 160.2L55.4768 162.774L54.6556 166.463L53.3099 165.387C46.5246 160.019 41.8656 152.417 40.1609 143.935C38.4548 135.455 39.8142 126.642 43.9976 119.069L43.9958 119.077ZM43.3328 230.187C44.3318 226.264 47.031 222.993 50.6911 221.265C54.3528 219.539 58.5955 219.539 62.2572 221.265C65.9174 222.993 68.6166 226.264 69.6155 230.187H43.3328ZM98.1755 200.58C100.3 205.887 104.301 210.227 109.416 212.777C113.2 214.678 116.27 217.748 118.17 221.531L122.497 230.187H76.6075C75.5324 223.788 71.4782 218.281 65.686 215.354C59.8954 212.427 53.0583 212.427 47.2681 215.354C41.4759 218.281 37.4218 223.788 36.3466 230.187H26.3423L27.1392 224.6C29.4947 207.821 39.3787 193.032 53.9801 184.437C56.2717 190.31 61.3415 194.653 67.4958 196.018C68.8613 196.322 70.2542 196.476 71.6518 196.477C77.4136 196.502 82.8559 193.836 86.3672 189.269C91.7581 191.153 96.069 195.278 98.1903 200.579L98.1755 200.58ZM134.82 132.708C134.819 135.75 132.352 138.217 129.31 138.218H105.73C101.886 138.223 98.1257 137.096 94.9156 134.981C91.7055 132.864 89.1888 129.852 87.6772 126.316L85.9437 122.27C84.75 119.491 84.8458 116.327 86.2022 113.625L86.3558 113.311C89.2116 107.589 89.5203 100.927 87.2074 94.9647L67.8633 45.2255L69.8523 44.7282C79.98 42.2176 90.6928 43.9572 99.5051 49.541C108.317 55.1247 114.464 64.0692 116.518 74.2973L116.944 76.4231C117.692 80.1609 119.734 83.5156 122.712 85.8968L132.232 93.5167V93.5152C133.438 94.4869 133.916 96.1049 133.431 97.577L132.749 99.5904V99.5889C131.699 102.747 131.968 106.195 133.496 109.151C133.841 109.844 133.704 110.682 133.155 111.228L130.941 113.442C129.717 114.667 129.155 116.404 129.431 118.113C129.708 119.822 130.789 121.294 132.337 122.07L133.815 122.809C134.427 123.113 134.813 123.738 134.81 124.421L134.82 132.708Z"/><path fill="#000" d="M110.976 83.7182C112.857 83.7182 114.382 82.193 114.382 80.312C114.382 78.4309 112.857 76.9057 110.976 76.9057C108.49 76.6731 106.014 77.441 104.097 79.0392C102.179 80.6374 100.976 82.9352 100.757 85.4216C100.976 87.9078 102.179 90.2055 104.097 91.8039C106.014 93.4023 108.49 94.17 110.976 93.9374C112.857 93.9374 114.382 92.4122 114.382 90.5311C114.382 88.6501 112.857 87.1249 110.976 87.1249C108.864 87.1249 107.57 86.0209 107.57 85.4218C107.57 84.8226 108.864 83.7186 110.976 83.7186V83.7182Z"/><path fill="#000" d="M220.315 173.928L219.842 174.398C217.82 176.417 215.545 178.167 213.074 179.603L236.676 129.447L230.511 126.546L203.833 183.253C202.569 183.556 201.29 183.784 200.001 183.934L193.672 184.635L194.383 183.688V183.689C196.076 181.433 196.582 178.499 195.741 175.806C194.902 173.113 192.819 170.989 190.142 170.095C187.983 169.383 185.629 169.547 183.588 170.551L165.057 136.579L159.077 139.843L178.295 175.073L174.098 179.27L174.099 179.272C173.499 179.179 172.893 179.118 172.287 179.091C167.924 179.101 163.731 180.789 160.578 183.803C157.424 186.817 155.549 190.929 155.341 195.287L141.834 232.415C141.451 233.461 141.602 234.629 142.24 235.542C142.879 236.456 143.922 236.998 145.037 236.997H168.881C170.401 236.995 171.738 235.987 172.155 234.524L178.627 211.903C181.358 210.784 183.753 208.976 185.575 206.654L194.571 207.525C195.98 207.662 197.387 207.729 198.787 207.729V207.731C208.042 207.843 217.041 204.699 224.213 198.847C228.974 194.815 232.734 189.734 235.201 184.003C236.326 181.375 236.16 178.373 234.751 175.885C233.341 173.399 230.85 171.712 228.019 171.329C225.186 170.945 222.336 171.906 220.315 173.927L220.315 173.928ZM185.977 177.048C186.501 176.522 187.279 176.339 187.983 176.578C188.584 176.776 189.051 177.249 189.241 177.852C189.429 178.455 189.317 179.112 188.937 179.616L184.978 184.882C183.906 183.66 182.662 182.597 181.286 181.728L185.977 177.048ZM166.312 230.186H149.901L158.625 206.191H158.624C161.604 210.229 166.22 212.739 171.227 213.045L166.312 230.186ZM172.287 206.342C169.577 206.342 166.977 205.265 165.061 203.349C163.145 201.433 162.068 198.833 162.068 196.123C162.068 193.414 163.145 190.813 165.061 188.897C166.977 186.982 169.578 185.905 172.287 185.905C174.996 185.905 177.597 186.981 179.513 188.897C181.429 190.813 182.506 193.414 182.506 196.123C182.506 198.833 181.429 201.434 179.513 203.349C177.597 205.265 174.996 206.342 172.287 206.342ZM228.936 181.322C226.225 187.809 221.453 193.226 215.36 196.734C209.267 200.242 202.188 201.649 195.214 200.738L188.789 200.115H188.791C189.498 197.467 189.49 194.678 188.766 192.035L200.749 190.703C209.791 189.689 218.218 185.636 224.658 179.21L225.131 178.74C225.923 177.945 227.169 177.825 228.098 178.455C229.029 179.084 229.378 180.285 228.933 181.316L228.936 181.322Z"/><path fill="#000" d="M156.71 76.2907L190.772 100.134C190.813 100.165 190.861 100.172 190.902 100.2C190.943 100.227 190.993 100.279 191.045 100.309L191.046 100.308C191.19 100.379 191.341 100.44 191.495 100.492C191.59 100.53 191.682 100.577 191.78 100.607H191.782C192.573 100.854 193.429 100.779 194.166 100.399C194.207 100.379 194.258 100.399 194.299 100.366C194.34 100.332 194.353 100.322 194.384 100.305C194.414 100.288 194.449 100.285 194.48 100.264L228.542 79.8262C229.567 79.2103 230.194 78.1017 230.194 76.9065V39.4376C230.18 37.8759 229.091 36.5301 227.568 36.188L194.261 19.365C193.296 18.8783 192.159 18.8783 191.195 19.365L157.882 36.188C156.358 36.5301 155.27 37.8759 155.256 39.4376V73.5003C155.256 74.6119 155.799 75.6535 156.71 76.2907L156.71 76.2907ZM162.069 44.7993L175.694 51.7002V59.8752C175.694 60.7785 176.053 61.6453 176.691 62.2839L189.319 74.91V90.8039L162.069 71.7288L162.069 44.7993ZM193.546 69.5007L182.506 58.4652V55.1243L191.189 59.5116V59.5101C192.153 59.9967 193.291 59.9967 194.255 59.5101L206.35 53.403V64.382L193.546 69.5007ZM196.131 91.328V75.8052L211.023 69.8503V69.8518C212.317 69.3333 213.164 68.0802 213.162 66.6873V49.9632L223.381 44.7989V74.9776L196.131 91.328ZM192.725 26.2198L218.888 39.4357L192.725 52.6516L166.562 39.4357L192.725 26.2198Z"/><path fill="#000" d="M165.838 105.678L171.932 102.631L202.588 163.943L196.495 166.991L165.838 105.678Z"/><path fill="#000" d="M196.736 136.28L227.391 91.9983L232.992 95.8759L202.337 140.157L196.736 136.28Z"/></svg>
